X:310
T:Untitled Hornpipe. RH.310
R:.hornpipe
S:Rev.R.Harrison’s MS,c1815,Cumbria
O:England
A:Temple Sowerby,Cumbria
Z:vmp.Simon Wilson. Review PJH, 2008.
M:C|
L:1/8
Q:1/2=80
K:D
AG|FDFA dbag|fedc d2ef|gedc fdcB|AFDF A3G|!
FDFA dbag|fedc b3d’|c’d’ba eagb|b2a2 a2:|!
|:bc’|d’afa g2gb|agfe f3a|bc’d’c’ bagf|edcB AGFE|!
FDFA dbag|fedc b3a|gfed Adcd|e2d2 d2:|

